world_stage/static/flags/rect/mng.svg

<svg height="3200" viewBox="0 0 4781.4668 3200" width="4781.4668" xmlns="http://www.w3.org/2000/svg" xmlns:xlink="http://www.w3.org/1999/xlink"><clipPath id="a"><path d="m0 2400h3586.096v-2400h-3586.096z" transform="translate(-615.96191 -1770.2197)"/></clipPath><clipPath id="b"><path d="m0 2400h3586.096v-2400h-3586.096z" transform="translate(-615.96191 -1875.6509)"/></clipPath><clipPath id="c"><path d="m0 2400h3586.096v-2400h-3586.096z" transform="translate(-615.96191 -1770.2197)"/></clipPath><clipPath id="d"><path d="m0 2400h3586.096v-2400h-3586.096z" transform="translate(-528.10301 -1893.2227)"/></clipPath><clipPath id="e"><path d="m0 2400h3586.096v-2400h-3586.096z" transform="translate(-440.24411 -610.48142)"/></clipPath><clipPath id="f"><path d="m0 2400h3586.096v-2400h-3586.096z" transform="translate(-615.96191 -1113.0352)"/></clipPath><clipPath id="g"><path d="m0 2400h3586.096v-2400h-3586.096z" transform="translate(-615.96191 -1113.0352)"/></clipPath><clipPath id="h"><path d="m0 2400h3586.096v-2400h-3586.096z" transform="translate(-615.96191 -1055.0479)"/></clipPath><clipPath id="i"><path d="m0 2400h3586.096v-2400h-3586.096z" transform="translate(-615.96191 -868.78712)"/></clipPath><path d="m0 0h3586.096v2400h-3586.096z" fill="#c4272f" transform="matrix(1.3333333 0 0 -1.3333333 0 3200)"/><path d="m1195.366 0h1195.365v2400h-1195.365z" fill="#015197" transform="matrix(1.3333333 0 0 -1.3333333 0 3200)"/><path clip-path="url(#a)" d="m0 0c106.751 0 193.29-86.539 193.29-193.29s-86.539-193.289-193.29-193.289-193.29 86.538-193.29 193.289 86.539 193.29 193.29 193.29" fill="#f9cf02" transform="matrix(1.3333333 0 0 -1.3333333 821.28253 839.70707)"/><path clip-path="url(#b)" d="m0 0c116.456 0 210.862-94.406 210.862-210.862 0-116.455-94.406-210.861-210.862-210.861s-210.861 94.406-210.861 210.861c0 116.456 94.405 210.862 210.861 210.862" fill="#c4272f" transform="matrix(1.3333333 0 0 -1.3333333 821.28253 699.13213)"/><g fill="#f9cf02"><path clip-path="url(#c)" d="m0 0c77.637 0 140.575-62.937 140.575-140.574s-62.938-140.574-140.575-140.574-140.574 62.937-140.574 140.574 62.937 140.574 140.574 140.574" transform="matrix(1.3333333 0 0 -1.3333333 821.28253 839.70707)"/><path clip-path="url(#d)" d="m0 0c0-48.523 39.336-87.859 87.859-87.859s87.859 39.336 87.859 87.859c0 35.144-21.965 39.537-21.965 52.715 0 13.179 13.179 30.751-13.178 52.716 13.178-21.965-8.786-26.358-8.786-48.323 0-21.964 8.786-21.964 8.786-39.536 0-9.705-7.867-17.572-17.572-17.572s-17.572 7.867-17.572 17.572c0 17.572 17.572 35.143 17.572 61.501s-4.393 35.143-17.572 57.108-35.144 39.537-17.572 57.109c-26.358-8.786-13.179-43.93-13.179-65.894 0-21.965-17.572-35.144-17.572-61.502 0-26.357 13.179-30.75 13.179-48.322 0-9.705-7.867-17.572-17.572-17.572-9.704 0-17.571 7.867-17.571 17.572 0 17.572 8.786 17.572 8.786 39.536 0 21.965-21.965 26.358-8.786 48.323-26.358-21.965-13.179-39.537-13.179-52.716 0-13.178-21.965-17.571-21.965-52.715" transform="matrix(1.3333333 0 0 -1.3333333 704.13733 675.70307)"/><path clip-path="url(#e)" d="m0 0h351.436l-175.718-105.431zm0 738.016h351.436l-175.718-105.432zm0-702.872h351.436v70.287h-351.436zm0 492.01h351.436v70.287h-351.436zm386.58-632.585h175.718v843.446h-175.718zm-597.441 0h175.718v843.446h-175.718z" transform="matrix(1.3333333 0 0 -1.3333333 586.99213 2386.0248)"/><path clip-path="url(#f)" d="m0 0c102.869 0 186.261-83.393 186.261-186.262s-83.392-186.26-186.261-186.26-186.261 83.391-186.261 186.26 83.392 186.262 186.261 186.262" stroke="#c4272f" stroke-width="24" transform="matrix(1.3333333 0 0 -1.3333333 821.28253 1715.9531)"/></g><path clip-path="url(#g)" d="m0 0c51.435 0 93.131-41.696 93.131-93.131 0-51.434-41.696-93.131-93.131-93.131-51.434 0-93.13-41.695-93.13-93.13 0-51.434 41.696-93.13 93.13-93.13" fill="none" stroke="#c4272f" stroke-width="24" transform="matrix(1.3333333 0 0 -1.3333333 821.28253 1715.9531)"/><g fill="#c4272f"><path clip-path="url(#h)" d="m0 0c19.41 0 35.144-15.734 35.144-35.144 0-19.409-15.734-35.143-35.144-35.143-19.409 0-35.144 15.734-35.144 35.143 0 19.41 15.735 35.144 35.144 35.144" transform="matrix(1.3333333 0 0 -1.3333333 821.28253 1793.2695)"/><path clip-path="url(#i)" d="m0 0c19.41 0 35.144-15.734 35.144-35.144 0-19.409-15.734-35.143-35.144-35.143-19.409 0-35.144 15.734-35.144 35.143 0 19.41 15.735 35.144 35.144 35.144" transform="matrix(1.3333333 0 0 -1.3333333 821.28253 2041.6172)"/></g></svg>

<?xml version="1.0" encoding="UTF-8" standalone="no"?>
<!-- Created with Inkscape (http://www.inkscape.org/) -->

<svg
   version="1.1"
   id="svg1"
   width="4781.4668"
   height="3200"
   viewBox="0 0 4781.4668 3200"
   sodipodi:docname="mn.ai"
   xmlns:inkscape="http://www.inkscape.org/namespaces/inkscape"
   xmlns:sodipodi="http://sodipodi.sourceforge.net/DTD/sodipodi-0.dtd"
   xmlns="http://www.w3.org/2000/svg"
   xmlns:svg="http://www.w3.org/2000/svg">
  <defs
     id="defs1">
    <clipPath
       clipPathUnits="userSpaceOnUse"
       id="clipPath4">
      <path
         d="M 0,2400 H 3586.096 V 0 H 0 Z"
         transform="translate(-615.96191,-1770.2197)"
         id="path4" />
    </clipPath>
    <clipPath
       clipPathUnits="userSpaceOnUse"
       id="clipPath6">
      <path
         d="M 0,2400 H 3586.096 V 0 H 0 Z"
         transform="translate(-615.96191,-1875.6509)"
         id="path6" />
    </clipPath>
    <clipPath
       clipPathUnits="userSpaceOnUse"
       id="clipPath8">
      <path
         d="M 0,2400 H 3586.096 V 0 H 0 Z"
         transform="translate(-615.96191,-1770.2197)"
         id="path8" />
    </clipPath>
    <clipPath
       clipPathUnits="userSpaceOnUse"
       id="clipPath10">
      <path
         d="M 0,2400 H 3586.096 V 0 H 0 Z"
         transform="translate(-528.10301,-1893.2227)"
         id="path10" />
    </clipPath>
    <clipPath
       clipPathUnits="userSpaceOnUse"
       id="clipPath12">
      <path
         d="M 0,2400 H 3586.096 V 0 H 0 Z"
         transform="translate(-440.24411,-610.48142)"
         id="path12" />
    </clipPath>
    <clipPath
       clipPathUnits="userSpaceOnUse"
       id="clipPath14">
      <path
         d="M 0,2400 H 3586.096 V 0 H 0 Z"
         transform="translate(-615.96191,-1113.0352)"
         id="path14" />
    </clipPath>
    <clipPath
       clipPathUnits="userSpaceOnUse"
       id="clipPath16">
      <path
         d="M 0,2400 H 3586.096 V 0 H 0 Z"
         transform="translate(-615.96191,-1113.0352)"
         id="path16" />
    </clipPath>
    <clipPath
       clipPathUnits="userSpaceOnUse"
       id="clipPath18">
      <path
         d="M 0,2400 H 3586.096 V 0 H 0 Z"
         transform="translate(-615.96191,-1055.0479)"
         id="path18" />
    </clipPath>
    <clipPath
       clipPathUnits="userSpaceOnUse"
       id="clipPath20">
      <path
         d="M 0,2400 H 3586.096 V 0 H 0 Z"
         transform="translate(-615.96191,-868.78712)"
         id="path20" />
    </clipPath>
  </defs>
  <sodipodi:namedview
     id="namedview1"
     pagecolor="#ffffff"
     bordercolor="#000000"
     borderopacity="0.25"
     inkscape:showpageshadow="2"
     inkscape:pageopacity="0.0"
     inkscape:pagecheckerboard="0"
     inkscape:deskcolor="#d1d1d1">
    <inkscape:page
       x="0"
       y="0"
       inkscape:label="1"
       id="page1"
       width="4781.4668"
       height="3200"
       margin="0"
       bleed="0" />
  </sodipodi:namedview>
  <g
     id="layer-MC0"
     inkscape:groupmode="layer"
     inkscape:label="Layer 1">
    <path
       id="path1"
       d="M 0,0 H 3586.096 V 2400 H 0 Z"
       style="fill:#c4272f;fill-opacity:1;fill-rule:nonzero;stroke:none"
       transform="matrix(1.3333333,0,0,-1.3333333,0,3200)" />
    <path
       id="path2"
       d="M 1195.366,0 H 2390.731 V 2400 H 1195.366 Z"
       style="fill:#015197;fill-opacity:1;fill-rule:nonzero;stroke:none"
       transform="matrix(1.3333333,0,0,-1.3333333,0,3200)" />
    <path
       id="path3"
       d="m 0,0 c 106.751,0 193.29,-86.539 193.29,-193.29 0,-106.751 -86.539,-193.289 -193.29,-193.289 -106.751,0 -193.29,86.538 -193.29,193.289 C -193.29,-86.539 -106.751,0 0,0"
       style="fill:#f9cf02;fill-opacity:1;fill-rule:nonzero;stroke:none"
       transform="matrix(1.3333333,0,0,-1.3333333,821.28253,839.70707)"
       clip-path="url(#clipPath4)" />
    <path
       id="path5"
       d="m 0,0 c 116.456,0 210.862,-94.406 210.862,-210.862 0,-116.455 -94.406,-210.861 -210.862,-210.861 -116.456,0 -210.861,94.406 -210.861,210.861 C -210.861,-94.406 -116.456,0 0,0"
       style="fill:#c4272f;fill-opacity:1;fill-rule:nonzero;stroke:none"
       transform="matrix(1.3333333,0,0,-1.3333333,821.28253,699.13213)"
       clip-path="url(#clipPath6)" />
    <path
       id="path7"
       d="m 0,0 c 77.637,0 140.575,-62.937 140.575,-140.574 0,-77.637 -62.938,-140.574 -140.575,-140.574 -77.637,0 -140.574,62.937 -140.574,140.574 C -140.574,-62.937 -77.637,0 0,0"
       style="fill:#f9cf02;fill-opacity:1;fill-rule:nonzero;stroke:none"
       transform="matrix(1.3333333,0,0,-1.3333333,821.28253,839.70707)"
       clip-path="url(#clipPath8)" />
    <path
       id="path9"
       d="m 0,0 c 0,-48.523 39.336,-87.859 87.859,-87.859 48.523,0 87.859,39.336 87.859,87.859 0,35.144 -21.965,39.537 -21.965,52.715 0,13.179 13.179,30.751 -13.178,52.716 13.178,-21.965 -8.786,-26.358 -8.786,-48.323 0,-21.964 8.786,-21.964 8.786,-39.536 C 140.575,7.867 132.708,0 123.003,0 c -9.705,0 -17.572,7.867 -17.572,17.572 0,17.572 17.572,35.143 17.572,61.501 0,26.358 -4.393,35.143 -17.572,57.108 C 92.252,158.146 70.287,175.718 87.859,193.29 61.501,184.504 74.68,149.36 74.68,127.396 74.68,105.431 57.108,92.252 57.108,65.894 57.108,39.537 70.287,35.144 70.287,17.572 70.287,7.867 62.42,0 52.715,0 43.011,0 35.144,7.867 35.144,17.572 c 0,17.572 8.786,17.572 8.786,39.536 0,21.965 -21.965,26.358 -8.786,48.323 C 8.786,83.466 21.965,65.894 21.965,52.715 21.965,39.537 0,35.144 0,0"
       style="fill:#f9cf02;fill-opacity:1;fill-rule:nonzero;stroke:none"
       transform="matrix(1.3333333,0,0,-1.3333333,704.13733,675.70307)"
       clip-path="url(#clipPath10)" />
    <path
       id="path11"
       d="M 0,0 H 351.436 L 175.718,-105.431 Z M 0,738.016 H 351.436 L 175.718,632.584 Z M 0,35.144 h 351.436 v 70.287 H 0 Z m 0,492.01 h 351.436 v 70.287 H 0 Z M 386.58,-105.431 H 562.298 V 738.015 H 386.58 Z m -597.441,0 h 175.718 v 843.446 h -175.718 z"
       style="fill:#f9cf02;fill-opacity:1;fill-rule:nonzero;stroke:none"
       transform="matrix(1.3333333,0,0,-1.3333333,586.99213,2386.0248)"
       clip-path="url(#clipPath12)" />
    <path
       id="path13"
       d="m 0,0 c 102.869,0 186.261,-83.393 186.261,-186.262 0,-102.869 -83.392,-186.26 -186.261,-186.26 -102.869,0 -186.261,83.391 -186.261,186.26 C -186.261,-83.393 -102.869,0 0,0"
       style="fill:#f9cf02;fill-opacity:1;fill-rule:nonzero;stroke:#c4272f;stroke-width:24;stroke-linecap:butt;stroke-linejoin:miter;stroke-miterlimit:4;stroke-dasharray:none;stroke-opacity:1"
       transform="matrix(1.3333333,0,0,-1.3333333,821.28253,1715.9531)"
       clip-path="url(#clipPath14)" />
    <path
       id="path15"
       d="m 0,0 c 51.435,0 93.131,-41.696 93.131,-93.131 0,-51.434 -41.696,-93.131 -93.131,-93.131 -51.434,0 -93.13,-41.695 -93.13,-93.13 0,-51.434 41.696,-93.13 93.13,-93.13"
       style="fill:none;stroke:#c4272f;stroke-width:24;stroke-linecap:butt;stroke-linejoin:miter;stroke-miterlimit:4;stroke-dasharray:none;stroke-opacity:1"
       transform="matrix(1.3333333,0,0,-1.3333333,821.28253,1715.9531)"
       clip-path="url(#clipPath16)" />
    <path
       id="path17"
       d="M 0,0 C 19.41,0 35.144,-15.734 35.144,-35.144 35.144,-54.553 19.41,-70.287 0,-70.287 c -19.409,0 -35.144,15.734 -35.144,35.143 C -35.144,-15.734 -19.409,0 0,0"
       style="fill:#c4272f;fill-opacity:1;fill-rule:nonzero;stroke:none"
       transform="matrix(1.3333333,0,0,-1.3333333,821.28253,1793.2695)"
       clip-path="url(#clipPath18)" />
    <path
       id="path19"
       d="M 0,0 C 19.41,0 35.144,-15.734 35.144,-35.144 35.144,-54.553 19.41,-70.287 0,-70.287 c -19.409,0 -35.144,15.734 -35.144,35.143 C -35.144,-15.734 -19.409,0 0,0"
       style="fill:#c4272f;fill-opacity:1;fill-rule:nonzero;stroke:none"
       transform="matrix(1.3333333,0,0,-1.3333333,821.28253,2041.6172)"
       clip-path="url(#clipPath20)" />
  </g>
</svg>
